src/assets/images/speciesChartGrid.svg

<?xml version="1.0" encoding="UTF-8"?>
<svg width="214px" height="219px" viewBox="0 0 214 219" version="1.1" xmlns="http://www.w3.org/2000/svg" xmlns:xlink="http://www.w3.org/1999/xlink">
    <!-- Generator: Sketch 57.1 (83088) - https://sketch.com -->
    <title>Group 32</title>
    <desc>Created with Sketch.</desc>
    <g id="UI-KIT" stroke="none" stroke-width="1" fill="none" fill-rule="evenodd">
        <g id="Group-32" transform="translate(0.750000, 0.940000)">
            <circle id="Oval" fill="#0A212E" opacity="0.5" cx="106.25" cy="111.06" r="106"></circle>
            <polygon id="Line-5-Copy-7" fill="#D8D8D8" fill-rule="nonzero" points="0 111.31 91.5 111.31 91.5 110.81 0 110.81"></polygon>
            <polygon id="Line-5-Copy-8" fill="#D8D8D8" fill-rule="nonzero" points="121.33667 111.31 212.5 111.31 212.5 110.81 121.33667 110.81"></polygon>
            <polygon id="Line-5-Copy-9" fill="#D8D8D8" fill-rule="nonzero" points="106.5 217.117373 106.5 126.002627 106 126.002627 106 217.117373"></polygon>
            <path d="M100.394,107.06 L100.394,116.06 L99.266,116.06 L99.266,107.996 L97.886,107.996 L97.886,107.06 L100.394,107.06 Z M107.57,113.108 C107.546,115.088 106.382,116.12 104.57,116.12 C102.746,116.12 101.558,115.088 101.558,113.108 L101.558,110.012 C101.558,108.044 102.746,107 104.57,107 C106.358,107 107.546,108.068 107.57,110.012 L107.57,113.108 Z M106.43,110.06 C106.43,108.5 105.674,107.936 104.57,107.936 C103.454,107.936 102.698,108.5 102.698,110.06 L102.698,113.06 C102.698,114.62 103.454,115.184 104.57,115.184 C105.674,115.184 106.43,114.62 106.43,113.06 L106.43,110.06 Z M114.578,113.108 C114.554,115.088 113.39,116.12 111.578,116.12 C109.754,116.12 108.566,115.088 108.566,113.108 L108.566,110.012 C108.566,108.044 109.754,107 111.578,107 C113.366,107 114.554,108.068 114.578,110.012 L114.578,113.108 Z M113.438,110.06 C113.438,108.5 112.682,107.936 111.578,107.936 C110.462,107.936 109.706,108.5 109.706,110.06 L109.706,113.06 C109.706,114.62 110.462,115.184 111.578,115.184 C112.682,115.184 113.438,114.62 113.438,113.06 L113.438,110.06 Z" id="100" fill="#DBDBDB" fill-rule="nonzero"></path>
            <path d="M105.034,84.06 L100.774,93.06 L99.574,93.06 L103.474,84.996 L99.502,84.996 L99.502,84.06 L105.034,84.06 Z M108.718,86.988 C110.218,86.988 111.382,88.164 111.382,90.024 C111.382,92.004 109.918,93.12 108.286,93.12 C107.194,93.12 106.282,92.64 105.718,91.872 L106.642,91.248 C106.858,91.632 107.278,92.184 108.238,92.184 C109.594,92.184 110.242,91.236 110.242,90.012 C110.242,89.052 109.714,87.996 108.622,87.996 C107.974,87.996 107.422,88.428 107.314,88.812 L105.922,88.32 L105.922,84.06 L110.494,84.06 L110.494,84.996 L107.05,84.996 L107.05,87.648 C107.506,87.168 108.298,86.988 108.718,86.988 Z" id="75" fill="#DBDBDB" fill-rule="nonzero"></path>
            <path d="M103.898,6.108 C103.874,8.088 102.71,9.12 100.898,9.12 C99.074,9.12 97.886,8.088 97.886,6.108 L97.886,3.012 C97.886,1.044 99.074,0 100.898,0 C102.686,0 103.874,1.068 103.898,3.012 L103.898,6.108 Z M102.758,3.06 C102.758,1.5 102.002,0.936 100.898,0.936 C99.782,0.936 99.026,1.5 99.026,3.06 L99.026,6.06 C99.026,7.62 99.782,8.184 100.898,8.184 C102.002,8.184 102.758,7.62 102.758,6.06 L102.758,3.06 Z M106.934,0.024 C108.014,0.024 108.914,0.888 108.914,1.98 C108.914,3.072 108.014,3.948 106.934,3.948 C105.866,3.948 104.978,3.072 104.978,1.98 C104.978,0.888 105.866,0.024 106.934,0.024 Z M107.654,9.06 L106.538,9.06 L111.242,0.06 L112.346,0.06 L107.654,9.06 Z M106.934,1.02 C106.394,1.02 105.974,1.452 105.974,1.98 C105.974,2.52 106.394,2.952 106.934,2.952 C107.498,2.952 107.906,2.52 107.906,1.98 C107.906,1.452 107.498,1.02 106.934,1.02 Z M112.01,5.172 C113.09,5.172 113.978,6.036 113.978,7.128 C113.978,8.22 113.09,9.096 112.01,9.096 C110.942,9.096 110.042,8.22 110.042,7.128 C110.042,6.036 110.942,5.172 112.01,5.172 Z M112.01,6.168 C111.458,6.168 111.05,6.6 111.05,7.128 C111.05,7.668 111.458,8.1 112.01,8.1 C112.562,8.1 112.982,7.668 112.982,7.128 C112.982,6.6 112.562,6.168 112.01,6.168 Z" id="0%" fill="#DBDBDB" fill-rule="nonzero"></path>
            <path d="M102.73,59.488 C104.23,59.488 105.394,60.664 105.394,62.524 C105.394,64.504 103.93,65.62 102.298,65.62 C101.206,65.62 100.294,65.14 99.73,64.372 L100.654,63.748 C100.87,64.132 101.29,64.684 102.25,64.684 C103.606,64.684 104.254,63.736 104.254,62.512 C104.254,61.552 103.726,60.496 102.634,60.496 C101.986,60.496 101.434,60.928 101.326,61.312 L99.934,60.82 L99.934,56.56 L104.506,56.56 L104.506,57.496 L101.062,57.496 L101.062,60.148 C101.518,59.668 102.31,59.488 102.73,59.488 Z M112.402,62.608 C112.378,64.588 111.214,65.62 109.402,65.62 C107.578,65.62 106.39,64.588 106.39,62.608 L106.39,59.512 C106.39,57.544 107.578,56.5 109.402,56.5 C111.19,56.5 112.378,57.568 112.402,59.512 L112.402,62.608 Z M111.262,59.56 C111.262,58 110.506,57.436 109.402,57.436 C108.286,57.436 107.53,58 107.53,59.56 L107.53,62.56 C107.53,64.12 108.286,64.684 109.402,64.684 C110.506,64.684 111.262,64.12 111.262,62.56 L111.262,59.56 Z" id="50" fill="#DBDBDB" fill-rule="nonzero"></path>
            <path d="M100.798,35.624 L105.082,35.624 L105.082,36.56 L99.73,36.56 L99.73,35.456 C99.73,33.908 100.27,33.392 101.062,32.876 C102.718,31.832 103.942,31.604 103.942,30.092 C103.942,29.276 103.594,28.436 102.55,28.436 C101.446,28.436 100.918,29.288 100.918,30.32 L99.778,30.056 C99.778,28.94 100.546,27.5 102.562,27.5 C104.386,27.5 105.082,28.7 105.082,30.092 C105.082,31.7 104.062,32.18 103.078,32.804 C101.374,33.896 100.798,34.04 100.798,35.624 Z M108.922,30.488 C110.422,30.488 111.586,31.664 111.586,33.524 C111.586,35.504 110.122,36.62 108.49,36.62 C107.398,36.62 106.486,36.14 105.922,35.372 L106.846,34.748 C107.062,35.132 107.482,35.684 108.442,35.684 C109.798,35.684 110.446,34.736 110.446,33.512 C110.446,32.552 109.918,31.496 108.826,31.496 C108.178,31.496 107.626,31.928 107.518,32.312 L106.126,31.82 L106.126,27.56 L110.698,27.56 L110.698,28.496 L107.254,28.496 L107.254,31.148 C107.71,30.668 108.502,30.488 108.922,30.488 Z" id="25" fill="#DBDBDB" fill-rule="nonzero"></path>
            <g id="radius" transform="translate(0.250000, 5.060000)" fill-rule="nonzero">
                <g id="Group-30">
                    <path d="M121.040359,155.152329 C141.382319,148.66707 155.464286,129.702357 155.464286,108.016229 C155.464286,80.6978581 133.318371,58.551943 106,58.551943 C78.6816293,58.551943 56.5357143,80.6978581 56.5357143,108.016229 C56.5357143,130.076191 71.1048296,149.288352 91.9412851,155.454011 L92.0831578,154.974561 C71.4576961,148.871337 57.0357143,129.853199 57.0357143,108.016229 C57.0357143,80.9740004 78.9577717,59.051943 106,59.051943 C133.042228,59.051943 154.964286,80.9740004 154.964286,108.016229 C154.964286,129.483166 141.024546,148.256337 120.888484,154.675953 L121.040359,155.152329 Z" id="Oval" fill="#48C386" transform="translate(106.000000, 107.002977) rotate(180.000000) translate(-106.000000, -107.002977) "></path>
                    <path d="M121.067518,183.679667 C157.313644,176.571989 183.857143,144.663697 183.857143,107.279448 C183.857143,69.6158485 156.921493,37.5418613 120.321206,30.7366773 C115.631278,29.8646673 110.843821,29.4223054 106,29.4223054 C63.0006873,29.4223054 28.1428571,64.2801356 28.1428571,107.279448 C28.1428571,145.005416 55.1663865,177.116142 91.8455171,183.85303 L91.9358416,183.361256 C55.493017,176.66777 28.6428571,144.763051 28.6428571,107.279448 C28.6428571,64.556278 63.2768297,29.9223054 106,29.9223054 C110.813124,29.9223054 115.569986,30.3618403 120.229806,31.2282524 C156.594298,37.9895944 183.357143,69.8578117 183.357143,107.279448 C183.357143,144.423533 156.98393,176.127121 120.971303,183.189012 L121.067518,183.679667 Z" id="Oval-Copy-63" fill="#CBF499" transform="translate(106.000000, 106.637668) rotate(180.000000) translate(-106.000000, -106.637668) "></path>
                    <path d="M120.962326,212.106987 C173.049887,204.765612 212.25,160.011847 212.25,106.902306 C212.25,48.2220511 164.680255,0.652305801 106,0.652305801 C47.3197453,0.652305801 -0.25,48.2220511 -0.25,106.902306 C-0.25,130.55917 7.50286031,153.038941 21.5820965,171.430168 C24.4064819,175.119566 27.469757,178.621674 30.7504612,181.912769 C34.3294389,185.503083 38.1600597,188.835129 42.2114874,191.881128 C49.2728041,197.19006 56.9693457,201.603598 65.1294309,205.007018 C68.9941113,206.618905 72.9552256,208.001114 76.9951281,209.144938 C81.9224773,210.540026 86.9588313,211.57821 92.0742695,212.247885 L92.139172,211.752115 C87.04787,211.0856 82.0353474,210.052329 77.1313396,208.663849 C73.1105968,207.52545 69.1682674,206.149796 65.3219017,204.545548 C57.2003676,201.158206 49.5400891,196.765464 42.5119561,191.48148 C38.4795041,188.449748 34.6668084,185.133293 31.1045731,181.559775 C27.8392157,178.284075 24.7902744,174.798355 21.9791154,171.126234 C7.96609881,152.821507 0.25,130.448328 0.25,106.902306 C0.25,48.4981935 47.5958877,1.1523058 106,1.1523058 C164.404112,1.1523058 211.75,48.4981935 211.75,106.902306 C211.75,159.761818 172.734194,204.305165 120.892544,211.611881 L120.962326,212.106987 Z" id="Oval-Copy-64" fill="#FFF100" transform="translate(106.000000, 106.450095) rotate(-180.000000) translate(-106.000000, -106.450095) "></path>
                    <path d="M121.079134,126.126365 C124.896216,122.216258 127.071429,116.983448 127.071429,111.408171 C127.071429,99.7707423 117.637429,90.3367424 106,90.3367424 C94.3625713,90.3367424 84.9285714,99.7707423 84.9285714,111.408171 C84.9285714,117.426585 87.465604,123.037498 91.8329502,127.006442 L92.169223,126.636415 C87.9050881,122.761266 85.4285714,117.28419 85.4285714,111.408171 C85.4285714,100.046885 94.6387137,90.8367424 106,90.8367424 C117.361286,90.8367424 126.571429,100.046885 126.571429,111.408171 C126.571429,116.851596 124.448152,121.959468 120.72135,125.777093 L121.079134,126.126365 Z" id="Oval-Copy-62" fill="#005D64" transform="translate(106.000000, 108.671592) rotate(180.000000) translate(-106.000000, -108.671592) "></path>
                </g>
            </g>
        </g>
    </g>
</svg>

<svg width="214" height="219" xmlns="http://www.w3.org/2000/svg"><g transform="translate(.75 .94)" fill="none" fill-rule="evenodd"><circle fill="#0A212E" opacity=".5" cx="106.25" cy="111.06" r="106"/><path fill="#D8D8D8" fill-rule="nonzero" d="M0 111.31h91.5v-.5H0zM121.337 111.31H212.5v-.5h-91.163zM106.5 217.117v-91.114h-.5v91.114z"/><path d="M100.394 107.06v9h-1.128v-8.064h-1.38v-.936h2.508zm7.176 6.048c-.024 1.98-1.188 3.012-3 3.012-1.824 0-3.012-1.032-3.012-3.012v-3.096c0-1.968 1.188-3.012 3.012-3.012 1.788 0 2.976 1.068 3 3.012v3.096zm-1.14-3.048c0-1.56-.756-2.124-1.86-2.124-1.116 0-1.872.564-1.872 2.124v3c0 1.56.756 2.124 1.872 2.124 1.104 0 1.86-.564 1.86-2.124v-3zm8.148 3.048c-.024 1.98-1.188 3.012-3 3.012-1.824 0-3.012-1.032-3.012-3.012v-3.096c0-1.968 1.188-3.012 3.012-3.012 1.788 0 2.976 1.068 3 3.012v3.096zm-1.14-3.048c0-1.56-.756-2.124-1.86-2.124-1.116 0-1.872.564-1.872 2.124v3c0 1.56.756 2.124 1.872 2.124 1.104 0 1.86-.564 1.86-2.124v-3zM105.034 84.06l-4.26 9h-1.2l3.9-8.064h-3.972v-.936h5.532zm3.684 2.928c1.5 0 2.664 1.176 2.664 3.036 0 1.98-1.464 3.096-3.096 3.096-1.092 0-2.004-.48-2.568-1.248l.924-.624c.216.384.636.936 1.596.936 1.356 0 2.004-.948 2.004-2.172 0-.96-.528-2.016-1.62-2.016-.648 0-1.2.432-1.308.816l-1.392-.492v-4.26h4.572v.936h-3.444v2.652c.456-.48 1.248-.66 1.668-.66zM103.898 6.108c-.024 1.98-1.188 3.012-3 3.012-1.824 0-3.012-1.032-3.012-3.012V3.012c0-1.968 1.188-3.012 3.012-3.012 1.788 0 2.976 1.068 3 3.012v3.096zm-1.14-3.048c0-1.56-.756-2.124-1.86-2.124-1.116 0-1.872.564-1.872 2.124v3c0 1.56.756 2.124 1.872 2.124 1.104 0 1.86-.564 1.86-2.124v-3zm4.176-3.036c1.08 0 1.98.864 1.98 1.956a1.98 1.98 0 0 1-1.98 1.968 1.967 1.967 0 0 1-1.956-1.968c0-1.092.888-1.956 1.956-1.956zm.72 9.036h-1.116l4.704-9h1.104l-4.692 9zm-.72-8.04c-.54 0-.96.432-.96.96 0 .54.42.972.96.972a.953.953 0 0 0 .972-.972.95.95 0 0 0-.972-.96zm5.076 4.152c1.08 0 1.968.864 1.968 1.956a1.97 1.97 0 0 1-1.968 1.968 1.977 1.977 0 0 1-1.968-1.968c0-1.092.9-1.956 1.968-1.956zm0 .996a.948.948 0 0 0-.96.96c0 .54.408.972.96.972a.96.96 0 0 0 .972-.972c0-.528-.42-.96-.972-.96zM102.73 59.488c1.5 0 2.664 1.176 2.664 3.036 0 1.98-1.464 3.096-3.096 3.096-1.092 0-2.004-.48-2.568-1.248l.924-.624c.216.384.636.936 1.596.936 1.356 0 2.004-.948 2.004-2.172 0-.96-.528-2.016-1.62-2.016-.648 0-1.2.432-1.308.816l-1.392-.492v-4.26h4.572v.936h-3.444v2.652c.456-.48 1.248-.66 1.668-.66zm9.672 3.12c-.024 1.98-1.188 3.012-3 3.012-1.824 0-3.012-1.032-3.012-3.012v-3.096c0-1.968 1.188-3.012 3.012-3.012 1.788 0 2.976 1.068 3 3.012v3.096zm-1.14-3.048c0-1.56-.756-2.124-1.86-2.124-1.116 0-1.872.564-1.872 2.124v3c0 1.56.756 2.124 1.872 2.124 1.104 0 1.86-.564 1.86-2.124v-3zM100.798 35.624h4.284v.936H99.73v-1.104c0-1.548.54-2.064 1.332-2.58 1.656-1.044 2.88-1.272 2.88-2.784 0-.816-.348-1.656-1.392-1.656-1.104 0-1.632.852-1.632 1.884l-1.14-.264c0-1.116.768-2.556 2.784-2.556 1.824 0 2.52 1.2 2.52 2.592 0 1.608-1.02 2.088-2.004 2.712-1.704 1.092-2.28 1.236-2.28 2.82zm8.124-5.136c1.5 0 2.664 1.176 2.664 3.036 0 1.98-1.464 3.096-3.096 3.096-1.092 0-2.004-.48-2.568-1.248l.924-.624c.216.384.636.936 1.596.936 1.356 0 2.004-.948 2.004-2.172 0-.96-.528-2.016-1.62-2.016-.648 0-1.2.432-1.308.816l-1.392-.492v-4.26h4.572v.936h-3.444v2.652c.456-.48 1.248-.66 1.668-.66z" fill="#DBDBDB" fill-rule="nonzero"/><g fill-rule="nonzero"><path d="M91.21 63.914c-20.342 6.485-34.424 25.45-34.424 47.136 0 27.318 22.146 49.464 49.464 49.464 27.318 0 49.464-22.146 49.464-49.464 0-22.06-14.569-41.272-35.405-47.438l-.142.48c20.625 6.103 35.047 25.12 35.047 46.958 0 27.042-21.922 48.964-48.964 48.964-27.042 0-48.964-21.922-48.964-48.964 0-21.467 13.94-40.24 34.076-46.66l-.152-.476z" fill="#48C386"/><path d="M91.182 34.656c-36.246 7.107-62.79 39.016-62.79 76.4 0 37.663 26.937 69.737 63.537 76.543a78.292 78.292 0 0 0 14.321 1.314c43 0 77.857-34.858 77.857-77.857 0-37.726-27.023-69.837-63.703-76.574l-.09.492c36.443 6.694 63.293 38.598 63.293 76.082 0 42.723-34.634 77.357-77.357 77.357-4.813 0-9.57-.44-14.23-1.306-36.364-6.761-63.127-38.63-63.127-76.051 0-37.144 26.373-68.848 62.386-75.91l-.097-.49z" fill="#CBF499"/><path d="M91.288 5.853C39.2 13.195 0 57.948 0 111.058c0 58.68 47.57 106.25 106.25 106.25s106.25-47.57 106.25-106.25c0-23.657-7.753-46.137-21.832-64.528a106.846 106.846 0 0 0-20.63-20.45 106.117 106.117 0 0 0-22.917-13.127 105.444 105.444 0 0 0-26.945-7.24l-.065.495a104.944 104.944 0 0 1 26.817 7.207 105.617 105.617 0 0 1 22.81 13.064 106.34 106.34 0 0 1 20.533 20.355C204.284 65.139 212 87.512 212 111.058c0 58.404-47.346 105.75-105.75 105.75S.5 169.462.5 111.058c0-52.86 39.016-97.403 90.857-104.71l-.07-.495z" fill="#FFF100"/><path d="M91.17 96.277a21 21 0 0 0-5.991 14.718c0 11.637 9.434 21.071 21.071 21.071 11.637 0 21.071-9.434 21.071-21.071 0-6.018-2.537-11.63-6.904-15.598l-.336.37a20.514 20.514 0 0 1 6.74 15.228c0 11.361-9.21 20.571-20.571 20.571s-20.571-9.21-20.571-20.571a20.5 20.5 0 0 1 5.85-14.369l-.358-.35z" fill="#005D64"/></g></g></svg>
